48x48/apps/3dchess.svg

<svg xmlns="http://www.w3.org/2000/svg" width="48" height="48" version="1.1">
 <g style="opacity:0.2" transform="matrix(-1.0891,0,0,1.1075178,43.710675,5)">
  <g>
   <path transform="matrix(0.91819,0,0,0.90292,-3.9385,-3.6117)" d="m 26.035,4 c -0.222,0.1119 -0.476,0.1957 -0.676,0.3496 -0.385,0.299 -0.76,0.6185 -1.105,0.9629 -0.379,0.3777 -0.771,0.5919 -1.324,0.707 -1.329,0.2725 -2.678,0.5744 -3.92,1.1016 -2.762,1.1762 -4.59,3.3919 -5.893,6.0569 -1.156,2.369 -1.177,4.937 -1.082,7.517 0.196,5.323 4.035,9.209 5.711,13.305 H 18.18 C 17.526,34 17,34.445 17,34.998 v 2.004 C 17,37.555 17.526,38 18.18,38 H 16.543 C 15.688,38 15,38.668 15,39.498 v 3.004 C 15,43.332 15.688,44 16.543,44 H 30.457 C 31.312,44 32,43.332 32,42.502 V 39.498 C 32,38.668 31.312,38 30.457,38 H 28.82 C 29.474,38 30,37.555 30,37.002 V 34.998 C 30,34.445 29.474,34 28.82,34 h 0.182 c 0.424,-0.398 0.829,-1.111 1.207,-1.518 1.713,-1.834 2.019,-4.437 0.816,-6.666 -0.588,-1.088 -1.415,-1.971 -2.369,-2.726 -1.074,-0.85 -2.184,-1.651 -3.267,-2.488 -0.31,-0.24 -0.584,-0.525 -0.996,-0.901 1.021,0.218 1.836,0.501 2.658,0.543 1.419,0.071 2.643,0.547 3.779,1.383 0.439,0.323 0.949,0.582 1.463,0.762 0.668,0.232 1,0.066 1.398,-0.545 0.105,-0.161 0.168,-0.347 0.268,-0.559 0.791,0.011 1.226,-0.451 1.443,-1.191 0.074,-0.253 0.2,-0.487 0.291,-0.733 0.615,-1.648 0.299,-3.107 -0.879,-4.379 C 34.551,14.691 34.238,14.449 33.963,14.17 33.045,13.242 32.122,12.319 31.227,11.369 30.577,10.678 29.992,9.9258 29.336,9.2402 29.011,8.9024 28.737,8.5643 28.586,8.1113 28.358,7.4324 27.93,6.9099 27.307,6.5566 27.086,6.4315 26.875,6.2857 26.715,6.1816 26.458,5.4241 27.067,4.4762 26.035,4 Z"/>
  </g>
 </g>
 <g style="fill:#f4f4f7" transform="matrix(-1.0891,0,0,1.1075178,43.710675,3.9997)">
  <g style="fill:#f4f4f7">
   <path style="fill:#f4f4f7" transform="matrix(0.91819,0,0,0.90292,-3.9385,-3.6117)" d="m 26.035,4 c -0.222,0.1119 -0.476,0.1957 -0.676,0.3496 -0.385,0.299 -0.76,0.6185 -1.105,0.9629 -0.379,0.3777 -0.771,0.5919 -1.324,0.707 -1.329,0.2725 -2.678,0.5744 -3.92,1.1016 -2.762,1.1762 -4.59,3.3919 -5.893,6.0569 -1.156,2.369 -1.177,4.937 -1.082,7.517 0.196,5.323 4.035,9.209 5.711,13.305 H 18.18 C 17.526,34 17,34.445 17,34.998 v 2.004 C 17,37.555 17.526,38 18.18,38 H 16.543 C 15.688,38 15,38.668 15,39.498 v 3.004 C 15,43.332 15.688,44 16.543,44 H 30.457 C 31.312,44 32,43.332 32,42.502 V 39.498 C 32,38.668 31.312,38 30.457,38 H 28.82 C 29.474,38 30,37.555 30,37.002 V 34.998 C 30,34.445 29.474,34 28.82,34 h 0.182 c 0.424,-0.398 0.829,-1.111 1.207,-1.518 1.713,-1.834 2.019,-4.437 0.816,-6.666 -0.588,-1.088 -1.415,-1.971 -2.369,-2.726 -1.074,-0.85 -2.184,-1.651 -3.267,-2.488 -0.31,-0.24 -0.584,-0.525 -0.996,-0.901 1.021,0.218 1.836,0.501 2.658,0.543 1.419,0.071 2.643,0.547 3.779,1.383 0.439,0.323 0.949,0.582 1.463,0.762 0.668,0.232 1,0.066 1.398,-0.545 0.105,-0.161 0.168,-0.347 0.268,-0.559 0.791,0.011 1.226,-0.451 1.443,-1.191 0.074,-0.253 0.2,-0.487 0.291,-0.733 0.615,-1.648 0.299,-3.107 -0.879,-4.379 C 34.551,14.691 34.238,14.449 33.963,14.17 33.045,13.242 32.122,12.319 31.227,11.369 30.577,10.678 29.992,9.9258 29.336,9.2402 29.011,8.9024 28.737,8.5643 28.586,8.1113 28.358,7.4324 27.93,6.9099 27.307,6.5566 27.086,6.4315 26.875,6.2857 26.715,6.1816 26.458,5.4241 27.067,4.4762 26.035,4 Z"/>
  </g>
 </g>
 <g style="opacity:0.2;fill:#f4f4f7" transform="matrix(-1.0891,0,0,1.1075178,43.710675,3.9997)">
  <g style="fill:#f4f4f7">
   <path style="fill:#f4f4f7" transform="matrix(0.91818933,0,0,0.90292003,-3.9384127,-3.6114092)" d="m 26.035156,4 c -0.222,0.1119 -0.475781,0.1957094 -0.675781,0.3496094 -0.385,0.299 -0.760468,0.6184906 -1.105469,0.9628906 -0.379,0.3777 -0.771218,0.5919313 -1.324218,0.7070312 -1.329001,0.2725 -2.677921,0.5743626 -3.919922,1.1015626 -2.762002,1.1761999 -4.589578,3.3916402 -5.892578,6.0566402 -0.962946,1.973371 -1.126703,4.087066 -1.103516,6.228516 0.04476,-1.797541 0.290669,-3.562744 1.103516,-5.228516 1.303,-2.665 3.130576,-4.8804403 5.892578,-6.0566402 1.242001,-0.5272 2.590921,-0.8290626 3.919922,-1.1015626 C 23.482688,6.9044313 23.874906,6.6902 24.253906,6.3125 24.598907,5.9681 24.974375,5.6486094 25.359375,5.3496094 25.559375,5.1957094 25.813156,5.1119 26.035156,5 26.495535,5.2124341 26.624496,5.51993 26.654297,5.8613281 26.596045,5.1729027 26.926442,4.4112693 26.035156,4 Z m 0.623047,1.90625 c 0.02523,0.4124139 -0.08066,0.8707061 0.05664,1.2753906 0.16,0.1041 0.370796,0.2499 0.591797,0.375 0.623,0.3533 1.051296,0.8757875 1.279297,1.5546875 0.151,0.453 0.424999,0.7911063 0.75,1.1289059 0.656,0.6856 1.240624,1.437907 1.890624,2.128907 0.895001,0.95 1.818328,1.872781 2.736329,2.800781 0.275,0.279 0.588562,0.5215 0.851562,0.8125 0.657968,0.710471 1.03643,1.481096 1.144531,2.308594 0.158902,-1.216231 -0.228492,-2.31946 -1.144531,-3.308594 -0.263,-0.291 -0.576562,-0.5335 -0.851562,-0.8125 -0.918001,-0.928 -1.841328,-1.850781 -2.736329,-2.800781 -0.65,-0.691 -1.234624,-1.4433066 -1.890624,-2.1289066 -0.325001,-0.3378 -0.599,-0.6759063 -0.75,-1.1289063 -0.228001,-0.6789 -0.656297,-1.2013875 -1.279297,-1.5546875 -0.221001,-0.1251 -0.431797,-0.2709 -0.591797,-0.375 -0.03019,-0.088989 -0.04629,-0.18222 -0.05664,-0.2753906 z m -2.265625,14.794922 c 0.412,0.376 0.686094,0.660391 0.996094,0.90039 1.083001,0.837 2.193577,1.638282 3.267578,2.488282 0.954001,0.755 1.78114,1.638562 2.369141,2.726562 0.405209,0.7508 0.624709,1.543954 0.691406,2.335938 0.105654,-1.114559 -0.114688,-2.267355 -0.691406,-3.335938 -0.588001,-1.088 -1.41514,-1.971562 -2.369141,-2.726562 -0.86449,-0.684186 -1.752576,-1.336933 -2.630859,-2.001953 -0.50278,-0.111032 -1.030341,-0.258082 -1.632813,-0.386719 z m -6.99414,13.558594 C 17.157085,34.442239 17,34.701353 17,34.998047 v 1 C 17,35.445047 17.525687,35 18.179688,35 h -0.433594 c -0.101393,-0.247795 -0.231717,-0.493612 -0.347656,-0.740234 z m 12.208984,0.0039 C 29.410581,34.53562 29.208763,34.805872 29.001953,35 H 28.820312 C 29.474313,35 30,35.445047 30,35.998047 v -1 C 30,34.70415 29.844815,34.445973 29.607422,34.263672 Z M 16.542969,38 C 15.687968,38 15,38.668047 15,39.498047 v 1 C 15,39.668047 15.687968,39 16.542969,39 h 1.636719 C 17.525687,39 17,38.554953 17,38.001953 V 38 Z M 30,38 v 0.002 C 30,38.554953 29.474313,39 28.820312,39 h 1.636719 C 31.312032,39 32,39.668047 32,40.498047 v -1 C 32,38.668047 31.312032,38 30.457031,38 Z"/>
  </g>
 </g>
</svg>

<svg xmlns="http://www.w3.org/2000/svg" width="48" height="48"><path transform="matrix(-1 0 0 1 48 1)" d="M26.035 4c-.222.112-.476.196-.676.35-.385.299-.76.618-1.105.963a2.453 2.453 0 0 1-1.324.707c-1.329.272-2.678.574-3.92 1.101-2.762 1.176-4.59 3.392-5.893 6.057-1.156 2.369-1.177 4.937-1.082 7.517.196 5.323 4.035 9.209 5.711 13.305h.434c-.654 0-1.18.445-1.18.998v2.004c0 .553.526.998 1.18.998h-1.637c-.855 0-1.543.668-1.543 1.498v3.004c0 .83.688 1.498 1.543 1.498h13.914c.855 0 1.543-.668 1.543-1.498v-3.004c0-.83-.688-1.498-1.543-1.498H28.82c.654 0 1.18-.445 1.18-.998v-2.004c0-.553-.526-.998-1.18-.998h.182c.424-.398.829-1.111 1.207-1.518 1.713-1.834 2.019-4.437.816-6.666-.588-1.088-1.415-1.971-2.369-2.726-1.074-.85-2.184-1.651-3.267-2.488-.31-.24-.584-.525-.996-.901 1.021.218 1.836.501 2.658.543 1.419.071 2.643.547 3.779 1.383.439.323.949.582 1.463.762.668.232 1 .066 1.398-.545.105-.161.168-.347.268-.559.791.011 1.226-.451 1.443-1.191.074-.253.2-.487.291-.733.615-1.648.299-3.107-.879-4.379-.263-.291-.576-.533-.851-.812-.918-.928-1.841-1.851-2.736-2.801-.65-.691-1.235-1.443-1.891-2.129-.325-.338-.599-.676-.75-1.129a2.735 2.735 0 0 0-1.279-1.554c-.221-.126-.432-.271-.592-.375-.257-.758.352-1.706-.68-2.182z" style="opacity:.2"/><path style="fill:#f4f4f7" transform="matrix(-1 0 0 1 48 0)" d="M26.035 4c-.222.112-.476.196-.676.35-.385.299-.76.618-1.105.963a2.453 2.453 0 0 1-1.324.707c-1.329.272-2.678.574-3.92 1.101-2.762 1.176-4.59 3.392-5.893 6.057-1.156 2.369-1.177 4.937-1.082 7.517.196 5.323 4.035 9.209 5.711 13.305h.434c-.654 0-1.18.445-1.18.998v2.004c0 .553.526.998 1.18.998h-1.637c-.855 0-1.543.668-1.543 1.498v3.004c0 .83.688 1.498 1.543 1.498h13.914c.855 0 1.543-.668 1.543-1.498v-3.004c0-.83-.688-1.498-1.543-1.498H28.82c.654 0 1.18-.445 1.18-.998v-2.004c0-.553-.526-.998-1.18-.998h.182c.424-.398.829-1.111 1.207-1.518 1.713-1.834 2.019-4.437.816-6.666-.588-1.088-1.415-1.971-2.369-2.726-1.074-.85-2.184-1.651-3.267-2.488-.31-.24-.584-.525-.996-.901 1.021.218 1.836.501 2.658.543 1.419.071 2.643.547 3.779 1.383.439.323.949.582 1.463.762.668.232 1 .066 1.398-.545.105-.161.168-.347.268-.559.791.011 1.226-.451 1.443-1.191.074-.253.2-.487.291-.733.615-1.648.299-3.107-.879-4.379-.263-.291-.576-.533-.851-.812-.918-.928-1.841-1.851-2.736-2.801-.65-.691-1.235-1.443-1.891-2.129-.325-.338-.599-.676-.75-1.129a2.735 2.735 0 0 0-1.279-1.554c-.221-.126-.432-.271-.592-.375-.257-.758.352-1.706-.68-2.182z"/><g style="opacity:.2;fill:#f4f4f7"><path style="fill:#f4f4f7" transform="matrix(-1 0 0 1 48 0)" d="M26.035 4c-.222.112-.476.196-.676.35-.385.299-.76.618-1.105.963a2.454 2.454 0 0 1-1.324.707c-1.33.272-2.678.574-3.92 1.101-2.762 1.176-4.59 3.392-5.893 6.057-.963 1.973-1.127 4.087-1.103 6.228.044-1.797.29-3.562 1.103-5.228 1.303-2.665 3.13-4.88 5.893-6.057 1.242-.527 2.59-.829 3.92-1.101.553-.116.945-.33 1.324-.707.345-.345.72-.664 1.105-.963.2-.154.454-.238.676-.35.46.212.59.52.62.861-.059-.688.271-1.45-.62-1.861zm.623 1.906c.025.413-.08.871.057 1.276.16.104.37.25.592.375a2.736 2.736 0 0 1 1.279 1.554c.15.453.425.791.75 1.13.656.685 1.24 1.437 1.89 2.128.896.95 1.819 1.873 2.737 2.8.275.28.588.522.851.813.658.71 1.037 1.482 1.145 2.309.159-1.216-.229-2.32-1.145-3.309-.263-.29-.576-.533-.851-.812-.918-.928-1.841-1.85-2.736-2.8-.65-.692-1.235-1.444-1.891-2.13-.325-.338-.6-.676-.75-1.129a2.736 2.736 0 0 0-1.28-1.554c-.22-.125-.431-.271-.591-.375a1.303 1.303 0 0 1-.057-.276zm-2.265 14.795c.412.376.686.66.996.9 1.083.838 2.193 1.639 3.267 2.489.954.755 1.781 1.638 2.37 2.726.405.751.624 1.544.69 2.336a5.835 5.835 0 0 0-.69-3.336c-.589-1.088-1.416-1.971-2.37-2.726-.864-.684-1.752-1.337-2.63-2.002-.503-.111-1.031-.258-1.633-.387zM17.398 34.26c-.24.182-.398.441-.398.738v1c0-.553.526-.998 1.18-.998h-.434c-.101-.248-.232-.494-.348-.74zm12.21.004c-.197.272-.4.542-.606.736h-.182c.654 0 1.18.445 1.18.998v-1c0-.294-.155-.552-.393-.734zM16.542 38c-.855 0-1.543.668-1.543 1.498v1c0-.83.688-1.498 1.543-1.498h1.637c-.654 0-1.18-.445-1.18-.998V38zM30 38v.002c0 .553-.526.998-1.18.998h1.637c.855 0 1.543.668 1.543 1.498v-1c0-.83-.688-1.498-1.543-1.498z"/></g></svg>
